X:23
T:Clean Pea Strae
R:Reel
M:4/4
L:1/8
K:D
|: A2 |\
"D" d2f2 gefd | "A" eAAB "C" =c2 BA | "D" defd gefd | "A7" egfe "D" d2 :|
fg |\
"D" afdf afdf | "A" eAAB "C" =c2 fg | "D" afdf afdf | "A7" egfe "D" defg|
"D" afdf afdf | "A" eAAB "C" =c2 fg | "D" afge fdec | "A7" Agfe "D" d2 |]
